src/assets/flags/aq.svg

<?xml version="1.0" encoding="UTF-8"?>
<svg xmlns="http://www.w3.org/2000/svg" xmlns:xlink="http://www.w3.org/1999/xlink" width="25px" height="px" viewBox="0 0 25 19" version="1.1">
<g id="surface1">
<rect x="0" y="0" width="25" height="19" style="fill:rgb(22.745098%,49.019608%,80.784315%);fill-opacity:1;stroke:none;"/>
<path style=" stroke:none;fill-rule:nonzero;fill:rgb(100%,100%,100%);fill-opacity:1;" d="M 6.160156 9.136719 C 6.023438 8.828125 6.023438 8.828125 6.023438 8.519531 C 5.953125 8.519531 5.945312 8.53125 5.90625 8.519531 C 5.863281 8.507812 5.847656 8.804688 5.71875 8.746094 C 5.699219 8.714844 5.8125 8.503906 5.691406 8.410156 C 5.652344 8.382812 5.699219 8.207031 5.683594 8.125 C 5.683594 8.125 5.527344 8.222656 5.410156 7.898438 C 5.351562 7.808594 5.273438 7.976562 5.273438 7.976562 C 5.273438 7.976562 5.308594 8.070312 5.246094 8.09375 C 5.160156 8.023438 5.09375 8.0625 4.984375 7.960938 C 4.875 7.855469 5.007812 7.746094 4.796875 7.664062 C 4.933594 7.277344 4.933594 7.351562 5.273438 7.195312 C 5.070312 7.039062 5.070312 7.039062 4.933594 6.808594 C 4.730469 6.730469 4.660156 6.648438 4.457031 6.5 C 4.183594 6.109375 4.046875 5.332031 4.046875 4.789062 C 4.21875 4.609375 4.457031 5.410156 4.796875 5.644531 L 5.273438 5.878906 C 5.546875 6.03125 5.613281 6.1875 5.820312 6.339844 L 6.429688 6.578125 C 6.703125 6.808594 6.839844 7.117188 7.042969 7.195312 C 7.265625 7.195312 7.308594 7.050781 7.378906 7.042969 C 7.78125 7.019531 7.984375 6.960938 8.0625 6.824219 C 8.144531 6.714844 8.335938 6.886719 8.882812 6.652344 L 8.816406 6.339844 C 8.816406 6.339844 8.960938 6.207031 9.15625 6.261719 C 9.152344 6.125 9.136719 5.746094 9.332031 5.574219 C 9.214844 5.433594 9.402344 5.21875 9.410156 5.148438 C 9.355469 4.808594 9.464844 4.804688 9.488281 4.703125 C 9.511719 4.605469 9.394531 4.636719 9.425781 4.496094 C 9.460938 4.359375 9.660156 4.328125 9.683594 4.210938 C 9.710938 4.097656 9.640625 3.644531 9.632812 3.546875 C 10 3.4375 10.117188 3.09375 10.246094 3.238281 C 10.3125 2.769531 10.382812 2.613281 10.792969 2.613281 C 10.847656 2.46875 10.640625 2.347656 10.722656 2.300781 C 10.859375 2.28125 10.960938 2.292969 11.121094 2.527344 C 11.171875 2.605469 11.183594 2.417969 11.234375 2.398438 C 11.285156 2.378906 11.40625 2.378906 11.425781 2.289062 C 11.445312 2.191406 11.472656 2.066406 11.542969 1.910156 C 11.597656 1.785156 11.640625 1.964844 11.691406 2.207031 C 11.980469 2.21875 12.628906 2.292969 12.902344 2.378906 C 13.105469 2.4375 13.242188 2.320312 13.4375 2.292969 C 13.582031 2.457031 13.71875 2.332031 13.796875 2.6875 C 13.902344 2.878906 14.082031 2.703125 14.121094 2.757812 C 14.347656 3.476562 15.128906 2.992188 15.191406 3.003906 C 15.289062 3.003906 15.410156 3.320312 15.492188 3.316406 C 15.617188 3.292969 15.582031 3.195312 15.695312 3.234375 C 15.664062 3.503906 15.914062 3.8125 15.914062 4.015625 C 15.914062 4.015625 15.972656 4.050781 16.03125 3.988281 C 16.085938 3.925781 16.136719 3.777344 16.1875 3.78125 C 16.304688 3.800781 17.046875 4.019531 17.195312 4.09375 C 17.261719 4.230469 17.324219 4.300781 17.460938 4.277344 C 17.570312 4.363281 17.492188 4.476562 17.554688 4.480469 C 17.691406 4.402344 17.738281 4.324219 17.875 4.398438 C 18.011719 4.476562 18.148438 4.632812 18.214844 4.785156 C 18.214844 4.863281 18.144531 5.171875 18.214844 5.640625 C 18.25 5.796875 18.59375 6.917969 18.59375 7.035156 C 18.59375 7.191406 18.488281 7.269531 18.417969 7.425781 C 18.691406 7.660156 18.417969 8.046875 18.28125 8.28125 C 19.304688 8.515625 18.828125 8.976562 19.644531 8.742188 C 19.441406 9.289062 19.511719 9.246094 19.714844 9.789062 C 19.308594 10.097656 19.707031 10.191406 19.4375 10.582031 C 19.417969 10.609375 19.597656 10.921875 19.847656 10.921875 C 19.78125 11.539062 19.574219 11.308594 19.644531 12.238281 C 19.109375 12.226562 19.324219 12.9375 18.964844 12.859375 C 18.984375 13.304688 19.167969 13.34375 19.097656 13.789062 C 18.824219 13.871094 18.824219 13.871094 18.691406 14.105469 L 18.488281 14.023438 C 18.417969 14.414062 18.28125 14.492188 18.488281 14.878906 C 18.488281 14.878906 18.222656 14.886719 18.144531 14.878906 C 18.140625 15.015625 18.261719 15.050781 18.28125 15.1875 C 18.273438 15.242188 17.894531 15.488281 17.601562 15.5 C 17.523438 15.691406 17.804688 15.898438 17.789062 15.992188 C 17.46875 16.0625 17.328125 16.507812 17.328125 16.507812 C 17.328125 16.507812 17.492188 16.585938 17.464844 16.664062 C 17.378906 16.59375 17.328125 16.585938 17.191406 16.585938 C 17.125 16.605469 16.957031 16.585938 16.800781 16.890625 C 16.625 16.953125 16.542969 16.929688 16.410156 17.128906 C 16.351562 16.941406 16.265625 17.132812 16.164062 17.207031 C 16.058594 17.277344 15.921875 17.464844 15.902344 17.457031 C 15.90625 17.402344 15.964844 17.207031 15.964844 17.207031 L 15.585938 17.296875 C 15.558594 17.300781 15.566406 17.074219 15.5 17.082031 C 15.433594 17.089844 15.25 17.371094 15.1875 17.378906 C 15.125 17.386719 15.105469 17.289062 15.050781 17.296875 C 14.996094 17.304688 14.894531 17.59375 14.855469 17.601562 C 14.816406 17.605469 14.660156 17.425781 14.53125 17.453125 C 13.863281 17.722656 13.753906 16.921875 13.652344 17.375 C 13.511719 17.285156 13.535156 17.332031 13.390625 17.378906 C 13.300781 17.40625 13.292969 17.242188 13.210938 17.242188 C 13.050781 17.25 13.054688 17.425781 12.96875 17.375 C 12.898438 17.007812 12.460938 17.074219 12.421875 16.917969 C 12.382812 16.761719 12.609375 16.757812 12.679688 16.648438 C 12.734375 16.492188 12.621094 16.425781 12.847656 16.277344 C 13.140625 16.050781 13.113281 15.492188 13.039062 15.273438 C 13.039062 15.273438 12.808594 14.574219 12.765625 14.574219 C 12.628906 14.535156 12.628906 14.832031 12.429688 14.914062 C 12.019531 15.074219 11.296875 14.523438 11.171875 14.523438 C 11.058594 14.523438 10.527344 14.664062 10.546875 14.363281 C 10.46875 14.65625 10.175781 14.433594 10.15625 14.433594 C 9.882812 14.433594 9.988281 14.671875 9.804688 14.664062 C 9.722656 14.632812 8.882812 14.574219 8.882812 14.574219 L 8.882812 14.734375 L 7.863281 14.265625 C 7.453125 14.109375 7.65625 13.722656 6.976562 13.957031 L 6.976562 13.488281 L 6.636719 13.488281 C 6.773438 12.554688 6.636719 13.023438 6.566406 12.167969 L 6.292969 12.246094 C 6.019531 11.828125 6.675781 11.90625 6.089844 11.625 C 6.089844 11.625 6.101562 11.164062 5.953125 11.316406 C 5.925781 11.335938 6.023438 11.546875 6.023438 11.546875 C 5.476562 11.46875 5.34375 11.316406 5.34375 10.695312 C 5.34375 10.695312 5.789062 10.765625 5.75 10.695312 C 5.6875 10.578125 5.605469 9.824219 5.617188 9.769531 C 5.613281 9.667969 6.035156 9.414062 5.953125 9.167969 C 6.007812 9.144531 6.160156 9.140625 6.160156 9.140625 "/>
<path style="fill:none;stroke-width:2.5;stroke-linecap:butt;stroke-linejoin:round;stroke:rgb(100%,100%,100%);stroke-opacity:1;stroke-miterlimit:4;" d="M 595.552248 297.559806 C 594.854744 298.885466 594.970994 300.109153 595.552248 301.230866 C 596.714755 299.49731 595.784749 298.783493 595.552248 297.559806 Z M 119.505702 148.16806 C 119.505702 148.16806 116.483184 147.760164 117.064438 150.513459 C 118.110694 148.473981 119.389451 148.270033 119.505702 148.16806 Z M 119.15695 141.845679 C 117.52944 141.845679 115.436928 141.641731 116.250683 144.293052 C 117.180688 142.1516 119.15695 141.947652 119.15695 141.845679 Z M 131.944525 178.148383 C 131.944525 178.148383 134.50204 177.944435 133.920787 180.595756 C 132.87453 178.556278 131.944525 178.250357 131.944525 178.148383 Z M 131.944525 178.148383 " transform="matrix(0.033602,0,0,0.0383064,0,0)"/>
</g>
</svg>

<svg xmlns="http://www.w3.org/2000/svg" width="25" height="px" viewBox="0 0 25 19"><path d="M0 0h25v19H0z" style="fill:#3a7dce;fill-opacity:1;stroke:none"/><path d="M6.16 9.137c-.137-.309-.137-.309-.137-.617-.07 0-.078.011-.117 0-.043-.012-.058.285-.187.226-.02-.031.093-.242-.028-.336-.039-.027.008-.203-.007-.285 0 0-.157.098-.274-.227-.058-.09-.137.079-.137.079s.036.093-.027.117c-.086-.07-.152-.031-.262-.133-.109-.106.024-.215-.187-.297.137-.387.137-.312.476-.469-.203-.156-.203-.156-.34-.386-.203-.079-.273-.16-.476-.309-.273-.39-.41-1.168-.41-1.71.172-.18.41.62.75.855l.476.234c.274.152.34.309.547.46l.61.24c.273.23.41.538.613.616.223 0 .266-.144.336-.152.402-.023.605-.082.684-.219.082-.11.273.063.82-.172l-.067-.312s.145-.133.34-.078c-.004-.137-.02-.516.176-.688-.117-.14.07-.355.078-.426-.055-.34.055-.343.078-.445.024-.098-.093-.066-.062-.207.035-.137.234-.168.258-.285.027-.113-.043-.566-.051-.664.367-.11.484-.453.613-.309.066-.468.137-.625.547-.625.055-.144-.152-.265-.07-.312.136-.02.238-.008.398.226.05.078.063-.109.113-.129s.172-.02.192-.109c.02-.098.047-.223.117-.379.055-.125.098.055.148.297.29.012.938.086 1.211.172.203.059.34-.059.536-.086.144.164.28.039.359.394.105.192.285.016.324.07.227.72 1.008.235 1.07.247.098 0 .22.316.301.312.125-.023.09-.12.203-.082-.03.27.22.579.22.782 0 0 .058.035.116-.028.055-.062.106-.21.157-.207.117.02.859.239 1.007.313.067.136.13.207.266.183.11.086.031.2.094.203.136-.078.183-.156.32-.082a.9.9 0 0 1 .34.387c0 .078-.07.387 0 .856.035.156.379 1.277.379 1.394 0 .156-.106.235-.176.39.273.235 0 .622-.137.856 1.024.235.547.696 1.364.461-.204.547-.133.504.07 1.047-.406.309-.008.402-.277.793-.02.027.16.34.41.34-.067.617-.274.387-.203 1.316-.536-.011-.32.7-.68.621.02.446.203.485.133.93-.274.082-.274.082-.407.316l-.203-.082c-.07.391-.207.47 0 .856 0 0-.265.008-.343 0-.004.137.117.172.136.309-.008.054-.386.3-.68.312-.078.191.204.398.188.492-.32.07-.46.516-.46.516s.163.078.136.156c-.086-.07-.137-.078-.274-.078-.066.02-.234 0-.39.305-.176.062-.258.039-.39.238-.06-.188-.145.004-.247.078-.105.07-.242.258-.262.25.004-.055.063-.25.063-.25l-.38.09c-.026.004-.019-.223-.085-.215s-.25.29-.312.297c-.063.008-.083-.09-.137-.082s-.156.297-.196.305c-.039.003-.195-.176-.324-.149-.668.27-.777-.531-.879-.078-.14-.09-.117-.043-.261.004-.09.027-.098-.137-.18-.137-.16.008-.156.184-.242.133-.07-.367-.508-.3-.547-.457-.04-.156.187-.16.258-.27.054-.156-.059-.222.168-.37.293-.227.265-.786.191-1.005 0 0-.23-.699-.273-.699-.137-.039-.137.258-.336.34-.41.16-1.133-.39-1.258-.39-.113 0-.645.14-.625-.16-.078.292-.371.07-.39.07-.274 0-.169.238-.352.23-.082-.031-.922-.09-.922-.09v.16l-1.02-.468c-.41-.157-.207-.543-.886-.309v-.469h-.34c.136-.933 0-.465-.07-1.32l-.274.078c-.273-.418.383-.34-.203-.621 0 0 .012-.46-.137-.309-.027.02.07.23.07.23-.546-.077-.68-.23-.68-.85 0 0 .446.07.407 0-.062-.118-.145-.872-.133-.926-.004-.102.418-.356.336-.602a1 1 0 0 1 .207-.027" style="stroke:none;fill-rule:nonzero;fill:#fff;fill-opacity:1"/><path d="M595.552 297.56c-.697 1.325-.581 2.55 0 3.67 1.163-1.733.233-2.447 0-3.67ZM119.506 148.168s-3.023-.408-2.442 2.345c1.047-2.039 2.325-2.243 2.442-2.345Zm-.35-6.322c-1.627 0-3.72-.204-2.905 2.447.93-2.141 2.906-2.345 2.906-2.447Zm12.789 36.302s2.557-.204 1.976 2.448c-1.046-2.04-1.976-2.346-1.976-2.448Zm0 0" style="fill:none;stroke-width:2.5;stroke-linecap:butt;stroke-linejoin:round;stroke:#fff;stroke-opacity:1;stroke-miterlimit:4" transform="scale(.0336 .0383)"/></svg>
